src/browser/themes/shared/zen-icons/nucleo/media-pause.svg

#filter dumbComments emptyLines substitution
# This Source Code Form is subject to the terms of the Mozilla Public
# License, v. 2.0. If a copy of the MPL was not distributed with this
# file, You can obtain one at http://mozilla.org/MPL/2.0/.
<svg fill="context-fill" fill-opacity="context-fill-opacity" width="21" height="20" viewBox="0 0 21 20" xmlns="http://www.w3.org/2000/svg" xmlns:svg="http://www.w3.org/2000/svg"><path d="m 16.3333,2.22217 h -1.6666 c -1.0739,0 -1.9445,0.87056 -1.9445,1.94444 V 15.8333 c 0,1.0739 0.8706,1.9444 1.9445,1.9444 h 1.6666 c 1.0739,0 1.9445,-0.8705 1.9445,-1.9444 V 4.16661 c 0,-1.07388 -0.8706,-1.94444 -1.9445,-1.94444 z m -9.99997,0 H 4.66667 c -1.07389,0 -1.94445,0.87056 -1.94445,1.94444 V 15.8333 c 0,1.0739 0.87056,1.9444 1.94445,1.9444 h 1.66666 c 1.07389,0 1.94445,-0.8705 1.94445,-1.9444 V 4.16661 c 0,-1.07388 -0.87056,-1.94444 -1.94445,-1.94444 z"/></svg>

#filter dumbComments emptyLines substitution
# This Source Code Form is subject to the terms of the Mozilla Public
# License, v. 2.0. If a copy of the MPL was not distributed with this
# file, You can obtain one at http://mozilla.org/MPL/2.0/.
<svg width="21" height="20" viewBox="0 0 21 20" fill="none" xmlns="http://www.w3.org/2000/svg">
<path d="M6.33333 2.22217H4.66667C3.59278 2.22217 2.72222 3.09273 2.72222 4.16661V15.8333C2.72222 16.9072 3.59278 17.7777 4.66667 17.7777H6.33333C7.40722 17.7777 8.27778 16.9072 8.27778 15.8333V4.16661C8.27778 3.09273 7.40722 2.22217 6.33333 2.22217Z" fill="context-fill" fill-opacity="context-fill-opacity"/>
<path d="M16.3333 2.22217H14.6667C13.5928 2.22217 12.7222 3.09273 12.7222 4.16661V15.8333C12.7222 16.9072 13.5928 17.7777 14.6667 17.7777H16.3333C17.4072 17.7777 18.2778 16.9072 18.2778 15.8333V4.16661C18.2778 3.09273 17.4072 2.22217 16.3333 2.22217Z" fill="context-fill" fill-opacity="context-fill-opacity"/>
</svg>
